X: 10073
T: BIRKS OF ABERFELDY.     a Reel.
R: reel
B: "Edinburgh Repository of Music" v.1 p.7 #3
F: http://digital.nls.uk/special-collections-of-printed-music/pageturner.cfm?id=87776133
Z: 2015 John Chambers <jc:trillian.mit.edu>
M: C|
L: 1/8
K: F
|:\
F>GAc f2fc | f2fd (ef/g/) (f/g/a) |\
F>GAc f>gag | f>dcA G2d2 :|
|:\
(F>GA)f cFAF | cFAc (d/c/B/A/) GA |\
F>GAc Tf>gag | fdcA G2d2 :|

%%sep 2 1 500
%%sep 1 1 500

